assets/svg/icon_report.svg

<svg width="24" height="24" viewBox="0 0 24 24" fill="none" xmlns="http://www.w3.org/2000/svg">
<path d="M12 7V13" stroke="#727689" stroke-width="1.8" stroke-linecap="round"/>
<circle cx="12" cy="16" r="1" fill="#727689"/>
<path d="M7.84308 3.80211C9.8718 2.6007 10.8862 2 12 2C13.1138 2 14.1282 2.6007 16.1569 3.80211L16.8431 4.20846C18.8718 5.40987 19.8862 6.01057 20.4431 7C21 7.98943 21 9.19084 21 11.5937V12.4063C21 14.8092 21 16.0106 20.4431 17C19.8862 17.9894 18.8718 18.5901 16.8431 19.7915L16.1569 20.1979C14.1282 21.3993 13.1138 22 12 22C10.8862 22 9.8718 21.3993 7.84308 20.1979L7.15692 19.7915C5.1282 18.5901 4.11384 17.9894 3.55692 17C3 16.0106 3 14.8092 3 12.4063V11.5937C3 9.19084 3 7.98943 3.55692 7C4.11384 6.01057 5.1282 5.40987 7.15692 4.20846L7.84308 3.80211Z" stroke="#727689" stroke-width="1.8"/>
</svg>

<svg xmlns="http://www.w3.org/2000/svg" width="24" height="24" fill="none"><path stroke="#727689" stroke-linecap="round" stroke-width="1.8" d="M12 7v6"/><circle cx="12" cy="16" r="1" fill="#727689"/><path stroke="#727689" stroke-width="1.8" d="M7.843 3.802C9.872 2.601 10.886 2 12 2s2.128.6 4.157 1.802l.686.406c2.029 1.202 3.043 1.803 3.6 2.792.557.99.557 2.19.557 4.594v.812c0 2.403 0 3.605-.557 4.594s-1.571 1.59-3.6 2.791l-.686.407C14.128 21.399 13.114 22 12 22s-2.128-.6-4.157-1.802l-.686-.407c-2.029-1.2-3.043-1.802-3.6-2.791C3 16.01 3 14.81 3 12.406v-.812C3 9.19 3 7.989 3.557 7s1.571-1.59 3.6-2.792z"/></svg>
